svgs/sharp-regular/signal-strong.svg

<svg xmlns="http://www.w3.org/2000/svg" viewBox="0 0 640 512"><!--! Font Awesome Pro 6.6.0 by @fontawesome - https://fontawesome.com License - https://fontawesome.com/license (Commercial License) Copyright 2024 Fonticons, Inc. --><path d="M472 96l0 24 0 368 0 24-48 0 0-24 0-368 0-24 48 0zM344 192l0 24 0 272 0 24-48 0 0-24 0-272 0-24 48 0zM216 288l0 24 0 176 0 24-48 0 0-24 0-176 0-24 48 0zM88 384l0 24 0 80 0 24-48 0 0-24 0-80 0-24 48 0z"/></svg>

<svg xmlns="http://www.w3.org/2000/svg" viewBox="0 0 640 512"><!--! Font Awesome Pro 6.4.0 by @fontawesome - https://fontawesome.com License - https://fontawesome.com/license (Commercial License) Copyright 2023 Fonticons, Inc. --><path d="M472 96v24V488v24H424V488 120 96h48zM344 192v24V488v24H296V488 216 192h48zM216 288v24V488v24H168V488 312 288h48zM88 384v24 80 24H40V488 408 384H88z"/></svg>
